docs/assets/img/semi-circle-purple-bg.svg

<svg width="268" height="452" fill="none" xmlns="http://www.w3.org/2000/svg"><g clip-path="url(#clip0)"><path d="M0 237.4c.5-36.9 5.6-72.9 19.5-107.2 8.6-21.2 19.9-41 35.4-58.2C92.9 29.9 141 8 196.3.5c8.9-1.2 18.3.2 27.3 1.6 13.9 2.2 28.7 18.5 26.2 33.6-2 12.3-9 21.3-19.6 26.9-14 7.4-28.3 14.1-42.8 20.4-27.2 11.7-52.3 26.8-72.8 48.4-19.2 20.2-33.8 43.2-37.1 71.5-1.3 11.4-.9 23.3.4 34.8 2.5 22.5 8.3 44.2 17.9 64.7 16 34.3 41.9 56.7 78.9 65.7 17.8 4.3 35.8 7.7 53.6 11.9 11.4 2.7 21.8 7.5 29.8 16.3 8.6 9.4 11.3 20.7 9 33-2.2 12.3-16.1 23.1-30 22.9-17.6-.3-35.3-1.1-52.9-2.5-13.9-1.1-28-2.4-41.6-5.4-34.5-7.5-62.7-25.6-85.7-52.6-22.7-26.7-40.3-55.9-49.5-89.8-2.1-7.9-3.8-15.9-4.7-24C1.5 264.3.9 250.8 0 237.4z" fill="#8276B3"/></g><defs><clipPath id="clip0"><path fill="#fff" d="M0 0h268v452H0z"/></clipPath></defs></svg>

<svg width="268" height="452" viewBox="0 0 268 452" fill="none" xmlns="http://www.w3.org/2000/svg">
<g clip-path="url(#clip0)">
<path d="M0 237.4C0.5 200.5 5.6 164.5 19.5 130.2C28.1 109 39.4 89.2 54.9 72C92.9 29.9 141 8.00005 196.3 0.500048C205.2 -0.699952 214.6 0.700048 223.6 2.10005C237.5 4.30005 252.3 20.6 249.8 35.7001C247.8 48.0001 240.8 57 230.2 62.6C216.2 70 201.9 76.7 187.4 83C160.2 94.7 135.1 109.8 114.6 131.4C95.4 151.6 80.8 174.6 77.5 202.9C76.2 214.3 76.6 226.2 77.9 237.7C80.4 260.2 86.2 281.9 95.8 302.4C111.8 336.7 137.7 359.1 174.7 368.1C192.5 372.4 210.5 375.8 228.3 380C239.7 382.7 250.1 387.5 258.1 396.3C266.7 405.7 269.4 417 267.1 429.3C264.9 441.6 251 452.4 237.1 452.2C219.5 451.9 201.8 451.1 184.2 449.7C170.3 448.6 156.2 447.3 142.6 444.3C108.1 436.8 79.9 418.7 56.9 391.7C34.2 365 16.6 335.8 7.4 301.9C5.3 294 3.6 286 2.7 277.9C1.5 264.3 0.9 250.8 0 237.4Z" fill="#8276B3"/>
</g>
<defs>
<clipPath id="clip0">
<rect width="268" height="452" fill="white"/>
</clipPath>
</defs>
</svg>
